X:57
T:Air. JGi.057
O:Tealby,Lincolnshire
M:6/8
L:1/8
Q:3/8=70
S:Joshua Gibbons MS,1823,Tealby,Lincs.
R:air
Z:VMP/R.Greig, 2009
K:Em
ge|dBB BAG|dBBB2g|dBB BAG|BEEE2z:|
|:d|g3a3|bag fed|gfg aga|bee e2g/b/|
b>ag agf|gfe dcB|ABcB2A|GEEE2z|]

